communes/5403.svg

<?xml version="1.0" encoding="UTF-8"?>
<svg version="1.0" viewBox="0 0 603 763" xmlns="http://www.w3.org/2000/svg" xmlns:cc="http://creativecommons.org/ns#" xmlns:dc="http://purl.org/dc/elements/1.1/" xmlns:rdf="http://www.w3.org/1999/02/22-rdf-syntax-ns#" xmlns:xlink="http://www.w3.org/1999/xlink">
<metadata>
<rdf:RDF>
<cc:Work rdf:about="">
<dc:format>image/svg+xml</dc:format>
<dc:type rdf:resource="http://purl.org/dc/dcmitype/StillImage"/>
<dc:date>07-AUG-2006</dc:date>
<dc:creator>
<cc:Agent>
<dc:title>Jérôme BLUM (wagner51)</dc:title>
</cc:Agent>
</dc:creator>
<cc:license rdf:resource="http://creativecommons.org/licenses/GPL/2.0/"/>
<dc:coverage/>
<dc:description>Gabarit pour le Projet:Blasons de WIkipédia</dc:description>
<dc:subject>
<rdf:Bag>
<rdf:li>blason suisse modèle gabarit projet blasons</rdf:li>
</rdf:Bag>
</dc:subject>
<dc:language>fr</dc:language>
<dc:title>Gabrit d'un blason suisse</dc:title>
</cc:Work>
<cc:License rdf:about="http://creativecommons.org/licenses/GPL/2.0/">
<cc:permits rdf:resource="http://web.resource.org/cc/Reproduction"/>
<cc:permits rdf:resource="http://web.resource.org/cc/Distribution"/>
<cc:requires rdf:resource="http://web.resource.org/cc/Notice"/>
<cc:permits rdf:resource="http://web.resource.org/cc/DerivativeWorks"/>
<cc:requires rdf:resource="http://web.resource.org/cc/ShareAlike"/>
<cc:requires rdf:resource="http://web.resource.org/cc/SourceCode"/>
</cc:License>
</rdf:RDF>
</metadata>
<defs>
<radialGradient id="a" cx="858.04" cy="579.93" r="300" gradientTransform="matrix(1.215 1.5316e-24 1.4647e-23 1.2667 -839.19 -490.49)" gradientUnits="userSpaceOnUse">
<stop stop-color="#fff" stop-opacity=".31373" offset="0"/>
<stop stop-color="#fff" stop-opacity=".25098" offset=".19"/>
<stop stop-color="#6b6b6b" stop-opacity=".12549" offset=".6"/>
<stop stop-opacity=".12549" offset="1"/>
</radialGradient>
</defs>
<desc>Coat of Arms of Canton of Freiburg (Fribourg)</desc>
<g>
<path d="m1.5 1.5v458.87c0 166.31 134.31 301.13 300 301.13 165.69 0 300-134.82 300-301.13v-458.87h-600z" fill="#fcef3c"/>
</g>
<g>
<path d="m601.5 436.42v-103.24c-6.363 1.729-13.866 2.816-23.301 2.816-46.115 0-46.115-25.968-92.231-25.968s-46.116 25.968-92.233 25.968-46.117-25.968-92.234-25.968c-46.116 0-46.116 25.968-92.231 25.968-46.116 0-46.117-25.968-92.232-25.968-46.117 0-46.117 25.968-92.234 25.968-9.434 0-16.937-1.088-23.301-2.816v103.24c6.364 1.729 13.867 2.816 23.301 2.816 46.117 0 46.117-25.969 92.234-25.969 46.115 0 46.115 25.969 92.232 25.969s46.117-25.969 92.231-25.969c46.117 0 46.117 25.969 92.234 25.969s46.117-25.969 92.233-25.969 46.116 25.969 92.231 25.969c9.435 1e-3 16.938-1.087 23.301-2.816z" fill="#2b5df2"/>
<path d="m601.5 333.19c-6.363 1.729-13.866 2.816-23.301 2.816-46.115 0-46.115-25.968-92.231-25.968s-46.116 25.968-92.233 25.968-46.117-25.968-92.234-25.968c-46.116 0-46.116 25.968-92.231 25.968-46.116 0-46.117-25.968-92.232-25.968-46.117 0-46.117 25.968-92.234 25.968-9.434 0-16.937-1.088-23.301-2.816" fill="none" stroke="#000" stroke-width="3"/>
<path d="m1.5 436.42c6.364 1.729 13.867 2.816 23.301 2.816 46.117 0 46.117-25.969 92.234-25.969 46.115 0 46.115 25.969 92.232 25.969s46.117-25.969 92.231-25.969c46.117 0 46.117 25.969 92.234 25.969s46.117-25.969 92.233-25.969c46.115 0 46.115 25.969 92.231 25.969 9.435 0 16.938-1.088 23.3-2.816" fill="none" stroke="#000" stroke-width="3"/>
<path d="m552.33 157.12c-29.919 0-54.173-24.254-54.173-54.173s24.254-54.173 54.173-54.173c6.513 0 12.757 1.151 18.541 3.258-12.727-12.288-29.984-19.9-49.071-19.9-39.108 0-70.813 31.706-70.813 70.814s31.705 70.813 70.813 70.813c19.087 0 36.344-7.611 49.07-19.898-5.784 2.107-12.027 3.259-18.54 3.259z" fill="#2b5df2" stroke="#000" stroke-linecap="round" stroke-linejoin="round" stroke-miterlimit="6" stroke-width="3"/>
</g>
<g>
<path d="m1.5 1.5v458.87c0 166.31 134.31 301.13 300 301.13 165.69 0 300-134.82 300-301.13v-458.87h-600z" fill="url(#a)"/>
<path d="m1.5 1.5v458.87c0 166.31 134.31 301.13 300 301.13 165.69 0 300-134.82 300-301.13v-458.87h-600z" fill="none" stroke="#000" stroke-width="3"/>
</g>
</svg>

<?xml version="1.0" encoding="UTF-8" standalone="no"?>
<svg
   xmlns:dc="http://purl.org/dc/elements/1.1/"
   xmlns:cc="http://creativecommons.org/ns#"
   xmlns:rdf="http://www.w3.org/1999/02/22-rdf-syntax-ns#"
   xmlns:svg="http://www.w3.org/2000/svg"
   xmlns="http://www.w3.org/2000/svg"
   xmlns:xlink="http://www.w3.org/1999/xlink"
   xmlns:sodipodi="http://sodipodi.sourceforge.net/DTD/sodipodi-0.dtd"
   xmlns:inkscape="http://www.inkscape.org/namespaces/inkscape"
   height="763"
   width="603"
   version="1.0"
   id="svg20"
   sodipodi:version="0.32"
   inkscape:version="0.46"
   sodipodi:docname="Chessel-coat_of_arms.svg"
   sodipodi:docbase="C:\Documents and Settings\Steve\Bureau\Blason Villages Suisse pour Wikipédia (par Delta-9)"
   inkscape:output_extension="org.inkscape.output.svg.inkscape">
  <metadata
     id="metadata31">
    <rdf:RDF>
      <cc:Work
         rdf:about="">
        <dc:format>image/svg+xml</dc:format>
        <dc:type
           rdf:resource="http://purl.org/dc/dcmitype/StillImage" />
        <dc:date>07-AUG-2006</dc:date>
        <dc:creator>
          <cc:Agent>
            <dc:title>Jérôme BLUM (wagner51)</dc:title>
          </cc:Agent>
        </dc:creator>
        <cc:license
           rdf:resource="http://creativecommons.org/licenses/GPL/2.0/" />
        <dc:coverage />
        <dc:description>Gabarit pour le Projet:Blasons de WIkipédia</dc:description>
        <dc:subject>
          <rdf:Bag>
            <rdf:li>blason suisse modèle gabarit projet blasons</rdf:li>
          </rdf:Bag>
        </dc:subject>
        <dc:language>fr</dc:language>
        <dc:title>Gabrit d'un blason suisse</dc:title>
      </cc:Work>
      <cc:License
         rdf:about="http://creativecommons.org/licenses/GPL/2.0/">
        <cc:permits
           rdf:resource="http://web.resource.org/cc/Reproduction" />
        <cc:permits
           rdf:resource="http://web.resource.org/cc/Distribution" />
        <cc:requires
           rdf:resource="http://web.resource.org/cc/Notice" />
        <cc:permits
           rdf:resource="http://web.resource.org/cc/DerivativeWorks" />
        <cc:requires
           rdf:resource="http://web.resource.org/cc/ShareAlike" />
        <cc:requires
           rdf:resource="http://web.resource.org/cc/SourceCode" />
      </cc:License>
    </rdf:RDF>
  </metadata>
  <defs
     id="defs29"><inkscape:perspective
   sodipodi:type="inkscape:persp3d"
   inkscape:vp_x="0 : 381.5 : 1"
   inkscape:vp_y="0 : 1000 : 0"
   inkscape:vp_z="603 : 381.5 : 1"
   inkscape:persp3d-origin="301.5 : 254.33333 : 1"
   id="perspective28" />
<linearGradient
   id="linearGradient2893">
  <stop
     style="stop-color:#ffffff;stop-opacity:0.3137255;"
     offset="0"
     id="stop2895" />
  <stop
     id="stop2897"
     offset="0.19"
     style="stop-color:#ffffff;stop-opacity:0.25098041;" />
  <stop
     style="stop-color:#6b6b6b;stop-opacity:0.1254902;"
     offset="0.60000002"
     id="stop2901" />
  <stop
     style="stop-color:#000000;stop-opacity:0.1254902;"
     offset="1"
     id="stop2899" />
</linearGradient>
<linearGradient
   id="linearGradient2955">
  <stop
     style="stop-color:white;stop-opacity:0;"
     offset="0"
     id="stop2965" />
  <stop
     style="stop-color:black;stop-opacity:0.64583331;"
     offset="1"
     id="stop2959" />
</linearGradient>
<radialGradient
   inkscape:collect="always"
   xlink:href="#linearGradient2893"
   id="radialGradient3236"
   gradientUnits="userSpaceOnUse"
   gradientTransform="matrix(1.215027,1.531577e-24,1.464684e-23,1.266667,-839.1924,-490.4894)"
   cx="858.04236"
   cy="579.93323"
   fx="858.04236"
   fy="579.93323"
   r="300" />
<inkscape:perspective
   sodipodi:type="inkscape:persp3d"
   inkscape:vp_x="0 : 420.94501 : 1"
   inkscape:vp_y="0 : 1000 : 0"
   inkscape:vp_z="595.27502 : 420.94501 : 1"
   inkscape:persp3d-origin="297.63751 : 280.63 : 1"
   id="perspective2642" />
<radialGradient
   r="300"
   fy="579.93323"
   fx="858.04236"
   cy="579.93323"
   cx="858.04236"
   gradientTransform="matrix(1.215027,1.531577e-24,1.464684e-23,1.266667,-839.1924,-490.4894)"
   gradientUnits="userSpaceOnUse"
   id="radialGradient2551"
   xlink:href="#linearGradient2893"
   inkscape:collect="always" />
<linearGradient
   id="linearGradient2545">
  <stop
     id="stop2547"
     offset="0"
     style="stop-color:white;stop-opacity:0;" />
  <stop
     id="stop2549"
     offset="1"
     style="stop-color:black;stop-opacity:0.64583331;" />
</linearGradient>
<linearGradient
   id="linearGradient2535">
  <stop
     id="stop2537"
     offset="0"
     style="stop-color:#ffffff;stop-opacity:0.3137255;" />
  <stop
     style="stop-color:#ffffff;stop-opacity:0.25098041;"
     offset="0.19"
     id="stop2539" />
  <stop
     id="stop2541"
     offset="0.60000002"
     style="stop-color:#6b6b6b;stop-opacity:0.1254902;" />
  <stop
     id="stop2543"
     offset="1"
     style="stop-color:#000000;stop-opacity:0.1254902;" />
</linearGradient>
<inkscape:perspective
   id="perspective2533"
   inkscape:persp3d-origin="301.5 : 254.33333 : 1"
   inkscape:vp_z="603 : 381.5 : 1"
   inkscape:vp_y="0 : 1000 : 0"
   inkscape:vp_x="0 : 381.5 : 1"
   sodipodi:type="inkscape:persp3d" />
<inkscape:perspective
   id="perspective2676"
   inkscape:persp3d-origin="297.63751 : 280.63 : 1"
   inkscape:vp_z="595.27502 : 420.94501 : 1"
   inkscape:vp_y="0 : 1000 : 0"
   inkscape:vp_x="0 : 420.94501 : 1"
   sodipodi:type="inkscape:persp3d" />

	
	
	
	

	
</defs>
  <sodipodi:namedview
     inkscape:window-height="968"
     inkscape:window-width="1280"
     inkscape:pageshadow="2"
     inkscape:pageopacity="0.0"
     guidetolerance="10.0"
     gridtolerance="10.0"
     objecttolerance="10.0"
     borderopacity="1.0"
     bordercolor="#666666"
     pagecolor="#ffffff"
     id="base"
     inkscape:zoom="0.92652193"
     inkscape:cx="173.53758"
     inkscape:cy="399.00713"
     inkscape:window-x="1280"
     inkscape:window-y="22"
     inkscape:current-layer="layer2"
     showgrid="false"
     showguides="true"
     inkscape:guide-bbox="true">
    <sodipodi:guide
       orientation="horizontal"
       position="761.5"
       id="guide1885" />
    <sodipodi:guide
       orientation="vertical"
       position="1.5"
       id="guide1887" />
    <sodipodi:guide
       orientation="horizontal"
       position="1.5"
       id="guide1889" />
    <sodipodi:guide
       orientation="vertical"
       position="601.5"
       id="guide1891" />
    <sodipodi:guide
       orientation="vertical"
       position="301.50081"
       id="guide1893" />
  </sodipodi:namedview>
  <desc
     id="desc22">Coat of Arms of Canton of Freiburg (Fribourg)</desc>
  <g
     inkscape:groupmode="layer"
     id="layer1"
     inkscape:label="Fond écu"
     style="opacity:1"
     sodipodi:insensitive="true">
    <path
       id="path1899"
       d="M 1.5,1.49998 L 1.5,460.3679 C 1.5,626.6785 135.81456,761.5 301.49999,761.5 C 467.18543,761.5 601.5,626.6785 601.5,460.3679 L 601.5,1.49998 L 1.5,1.49998 z"
       style="fill:#fcef3c;fill-opacity:1" />
  </g>
  <g
     inkscape:groupmode="layer"
     id="layer2"
     inkscape:label="Meubles"
     style="opacity:1;display:inline"
     sodipodi:insensitive="true">
    <g
       id="g2703">
      <path
         style="fill:#2b5df2"
         id="path2606"
         d="M 601.499,436.425 L 601.499,333.186 C 595.136,334.915 587.633,336.002 578.198,336.002 C 532.083,336.002 532.083,310.034 485.967,310.034 C 439.851,310.034 439.851,336.002 393.734,336.002 C 347.617,336.002 347.617,310.034 301.5,310.034 C 255.384,310.034 255.384,336.002 209.269,336.002 C 163.153,336.002 163.152,310.034 117.037,310.034 C 70.92,310.034 70.92,336.002 24.803,336.002 C 15.369,336.002 7.866,334.914 1.502,333.186 L 1.502,436.425 C 7.866,438.154 15.369,439.241 24.803,439.241 C 70.92,439.241 70.92,413.272 117.037,413.272 C 163.152,413.272 163.152,439.241 209.269,439.241 C 255.386,439.241 255.386,413.272 301.5,413.272 C 347.617,413.272 347.617,439.241 393.734,439.241 C 439.851,439.241 439.851,413.272 485.967,413.272 C 532.083,413.272 532.083,439.241 578.198,439.241 C 587.633,439.242 595.136,438.154 601.499,436.425 z" />
      <path
         style="fill:none;stroke:#000000;stroke-width:3"
         id="path2608"
         d="M 601.499,333.186 C 595.136,334.915 587.633,336.002 578.198,336.002 C 532.083,336.002 532.083,310.034 485.967,310.034 C 439.851,310.034 439.851,336.002 393.734,336.002 C 347.617,336.002 347.617,310.034 301.5,310.034 C 255.384,310.034 255.384,336.002 209.269,336.002 C 163.153,336.002 163.152,310.034 117.037,310.034 C 70.92,310.034 70.92,336.002 24.803,336.002 C 15.369,336.002 7.866,334.914 1.502,333.186" />
      <path
         style="fill:none;stroke:#000000;stroke-width:3"
         id="path2610"
         d="M 1.5,436.425 C 7.864,438.154 15.367,439.241 24.801,439.241 C 70.918,439.241 70.918,413.272 117.035,413.272 C 163.15,413.272 163.15,439.241 209.267,439.241 C 255.384,439.241 255.384,413.272 301.498,413.272 C 347.615,413.272 347.615,439.241 393.732,439.241 C 439.849,439.241 439.849,413.272 485.965,413.272 C 532.08,413.272 532.08,439.241 578.196,439.241 C 587.631,439.241 595.134,438.153 601.496,436.425" />
    </g>
    <path
       id="path2669"
       d="M 552.327,157.118 C 522.408,157.118 498.154,132.864 498.154,102.945 C 498.154,73.026 522.408,48.772 552.327,48.772 C 558.84,48.772 565.084,49.923 570.868,52.03 C 558.141,39.742 540.884,32.13 521.797,32.13 C 482.689,32.13 450.984,63.836 450.984,102.944 C 450.984,142.052 482.689,173.757 521.797,173.757 C 540.884,173.757 558.141,166.146 570.867,153.859 C 565.083,155.966 558.84,157.118 552.327,157.118 z"
       stroke-miterlimit="6"
       style="fill:#2b5df2;stroke:#000000;stroke-width:3;stroke-linecap:round;stroke-linejoin:round;stroke-miterlimit:6" />
  </g>
  <g
     inkscape:groupmode="layer"
     id="layer3"
     inkscape:label="Reflet final"
     style="display:inline"
     sodipodi:insensitive="true">
    <path
       style="fill:url(#radialGradient3236);fill-opacity:1"
       d="M 1.5,1.5 L 1.5,460.3679 C 1.5,626.67854 135.81454,761.5 301.49993,761.5 C 467.1854,761.5 601.5,626.67854 601.5,460.3679 L 601.5,1.5 L 1.5,1.5 z "
       id="path2346" />
  </g>
  <g
     inkscape:groupmode="layer"
     id="layer4"
     inkscape:label="Contour final"
     style="display:inline"
     sodipodi:insensitive="true">
    <path
       style="fill:none;fill-opacity:1;stroke:#000000;stroke-width:3;stroke-miterlimit:4;stroke-dasharray:none;stroke-opacity:1"
       d="M 1.5,1.5 L 1.5,460.36794 C 1.5,626.67854 135.81454,761.5 301.49993,761.5 C 467.1854,761.5 601.5,626.67854 601.5,460.36794 L 601.5,1.5 L 1.5,1.5 z "
       id="path3239" />
  </g>
</svg>
